icons/wearos.svg

<?xml version="1.0" encoding="UTF-8"?>
<svg width="256px" height="196px" viewBox="0 0 256 196" version="1.1" xmlns="http://www.w3.org/2000/svg" xmlns:xlink="http://www.w3.org/1999/xlink" preserveAspectRatio="xMidYMid">
    <g>
        <circle fill="#00A94B" cx="201.603167" cy="79.7592798" r="26.5435723"></circle>
        <circle fill="#FF4131" cx="231.198977" cy="25.2005203" r="24.7994362"></circle>
        <path d="M166.502426,195.635327 C157.018686,195.635327 147.916475,190.130397 143.828656,180.919178 L78.8050793,34.9022777 C73.2456453,22.366299 78.8595836,7.70465429 91.3955623,2.14522025 C103.931541,-3.41421379 118.593186,2.19972451 124.15262,14.7357032 L189.176196,160.752603 C194.73563,173.288582 189.121692,187.950227 176.585713,193.509661 C173.315458,194.981276 169.88169,195.635327 166.502426,195.635327 Z" fill="#FFBC00"></path>
        <path d="M89.7604346,195.253797 C79.4046261,195.253797 69.5393559,189.258329 65.070007,179.229546 L2.3356091,38.2815415 C-3.71436324,24.6554777 2.39011335,8.68573089 16.0161772,2.63575855 C29.642241,-3.41421379 45.6119878,2.6902628 51.6619602,16.3163266 L114.396358,157.264331 C120.44633,170.890395 114.341854,186.860142 100.71579,192.910114 C97.1730134,194.490737 93.4122197,195.253797 89.7604346,195.253797 Z" fill="#0085F7"></path>
    </g>
</svg>

<svg xmlns="http://www.w3.org/2000/svg" viewBox="0 0 255.998 195.635">
  <circle cx="201.603" cy="79.759" r="26.544" fill="#00a94b"/>
  <circle cx="231.199" cy="25.201" r="24.799" fill="#ff4131"/>
  <path fill="#ffbc00" d="M166.502 195.635c-9.483 0-18.586-5.505-22.673-14.716L78.805 34.902c-5.56-12.536.055-27.197 12.59-32.757 12.537-5.56 27.198.055 32.758 12.59l65.023 146.018c5.56 12.536-.054 27.197-12.59 32.757-3.27 1.471-6.704 2.125-10.084 2.125z"/>
  <path fill="#0085f7" d="M89.76 195.254c-10.355 0-20.22-5.996-24.69-16.024L2.336 38.282c-6.05-13.627.054-29.596 13.68-35.646 13.626-6.05 29.596.054 35.646 13.68l62.734 140.948c6.05 13.626-.054 29.596-13.68 35.646a26.963 26.963 0 0 1-10.956 2.344z"/>
</svg>
